images/jaws/jaw-up.svg

<svg width="152" height="59" viewBox="0 0 152 59" fill="none" xmlns="http://www.w3.org/2000/svg">
<path d="M5.97404 5.07971C-1.48213 9.74904 -0.754543 19.7516 1.71686 27.7767C3.33076 33.0173 7.93269 36.5583 13.275 37.7943C25.6144 40.6493 50.0478 45.4432 75.2986 45.5294C110.893 45.6508 148.147 36.207 149.318 35.6233C151.675 34.4493 152.08 22.9045 151.988 17.2788C151.841 3.5018 140.705 0.90761 128.861 1.31014C122.914 1.51228 117.122 3.11384 111.277 4.2348C110.991 4.28971 110.709 4.34194 110.432 4.3916C103.125 5.69936 95.9422 3.24948 88.666 1.77916C72.6874 -1.44969 62.567 4.39584 60.6603 5.07971C58.819 5.74012 54.9217 5.35488 53.2031 5.07971L38.8411 2.05287C32.1817 0.371285 16.2852 -1.37756 5.97404 5.07971Z" fill="#F5F5F5"/>
<path d="M151.488 17.2841L151.488 17.287C151.534 20.0875 151.456 24.3591 151.074 28.0692C150.883 29.9266 150.618 31.6239 150.261 32.92C150.082 33.5688 149.885 34.0985 149.673 34.4916C149.457 34.8935 149.255 35.0954 149.097 35.175C149.097 35.175 149.087 35.1794 149.062 35.1888C149.034 35.1991 148.996 35.2124 148.947 35.2287C148.849 35.2612 148.715 35.3025 148.545 35.3522C148.205 35.4516 147.732 35.5816 147.135 35.7378C145.94 36.0501 144.255 36.4652 142.152 36.9471C137.947 37.9108 132.077 39.1404 125.131 40.3482C111.238 42.7642 93.0572 45.09 75.3003 45.0294C50.1035 44.9434 25.7117 40.1586 13.3877 37.3072C8.17859 36.1019 3.74501 32.6636 2.19471 27.6295C0.969409 23.6508 0.18865 19.2171 0.619724 15.2235C1.0494 11.2428 2.67569 7.73522 6.23941 5.50347C11.2874 2.34224 17.737 1.17269 23.7901 1.01405C29.8368 0.855575 35.4302 1.70726 38.7187 2.53765L38.7283 2.54008L38.738 2.54212L53.1 5.56896L53.112 5.57149L53.1241 5.57342C54.0006 5.71378 55.4256 5.8813 56.8687 5.93027C58.2906 5.97851 59.8105 5.91569 60.8291 5.55035C61.0749 5.46221 61.4219 5.30725 61.8703 5.107C63.333 4.4538 65.8749 3.31867 69.5028 2.44837C74.2077 1.31971 80.6583 0.671125 88.567 2.26925C90.0812 2.57525 91.5909 2.92375 93.1063 3.27357C93.403 3.34205 93.6998 3.41058 93.997 3.47885C95.8085 3.89504 97.6279 4.30084 99.4511 4.61969C103.098 5.25739 106.785 5.55219 110.52 4.88378C110.799 4.83375 111.083 4.78114 111.372 4.72585C112.888 4.43499 114.392 4.11416 115.891 3.7946C120.219 2.87136 124.499 1.95871 128.878 1.80986C134.778 1.60933 140.411 2.16215 144.573 4.41678C146.643 5.53866 148.347 7.08018 149.544 9.16409C150.743 11.25 151.452 13.9076 151.488 17.2841Z" stroke="#C7C7CC" stroke-opacity="0.6"/>
<path d="M6.767 30.6703C8.31369 29.643 9.13562 34.7673 9.28907 37.4578L9.98926 47.3638C9.71306 48.281 8.84766 50.0421 7.59558 49.7486C6.03049 49.3817 5.01778 44.8873 4.83365 41.677C4.64952 38.4667 4.83365 31.9544 6.767 30.6703Z" fill="white" stroke="#E0E0E3" stroke-width="1.5"/>
<path d="M14.392 33.5199L15.3294 34.7979L16.0659 48.0059C10.843 54.5437 8.47533 45.0591 9.31545 36.7335C9.5164 34.7421 9.81457 32.9066 10.0817 31.4959C10.6137 28.6872 12.7013 31.2148 14.392 33.5199Z" fill="white" stroke="#E0E0E3" stroke-width="1.5"/>
<path d="M24.0754 40.9632V37.2282C24.0754 33.4587 24.7011 28.7241 28.4024 28.0103C35.3493 26.6708 36.5376 38.5074 36.0974 45.5686L35.8596 49.3817C35.7251 50.7218 33.8658 52.9798 32.7494 54.1301C32.5619 54.3233 32.3027 54.4264 32.0335 54.4264C31.8854 54.4264 31.7378 54.3948 31.6041 54.3313C28.9096 53.0515 27.0388 51.043 25.8236 49.152C24.2821 46.7534 24.0754 43.8145 24.0754 40.9632Z" fill="white" stroke="#E0E0E3" stroke-width="1.5"/>
<path d="M53.8477 37.6411C53.8169 35.0967 52.8414 32.9654 51.4877 31.3059C48.2709 27.3624 42.0427 27.2735 38.8804 31.2609C37.1746 33.4119 35.8588 36.3787 35.8588 40.0259V53.7842C35.8281 54.6403 36.6447 56.174 39.3572 56.4442C41.2139 56.6292 44.6515 56.6898 47.6005 56.7097C50.0737 56.7263 53.6635 56.6244 53.6635 54.1511L53.5715 45.9878L53.8477 37.6411Z" fill="white" stroke="#E0E0E3" stroke-width="1.5"/>
<path d="M19.1039 28.3772C19.9877 28.2304 22.7865 30.8843 24.0754 32.2295L25.3643 48.3727C21.9763 52.4819 20.2087 53.02 19.7483 52.7754C17.9991 51.9804 14.5927 48.2076 14.961 39.4756C15.4213 28.5606 17.9991 28.5606 19.1039 28.3772Z" fill="white" stroke="#E0E0E3" stroke-width="1.5"/>
<path d="M73.0109 30.2194C77.9794 35.3168 77.4271 45.6557 76.4618 55.0684C75.0808 58.3704 60.1663 57.4532 57.1282 57.178C54.2727 56.9194 53.6297 53.6185 53.6297 50.7514V41.7686C53.4955 38.3576 53.7039 32.5082 58.5025 29.3056C62.8609 26.3968 69.3535 26.467 73.0109 30.2194Z" fill="white" stroke="#E0E0E3" stroke-width="1.5"/>
<path d="M147.441 30.6703C145.895 29.643 145.073 34.7673 144.919 37.4578L144.219 47.3638C144.495 48.281 145.361 50.0421 146.613 49.7486C148.178 49.3817 149.191 44.8873 149.375 41.677C149.559 38.4667 149.375 31.9544 147.441 30.6703Z" fill="white" stroke="#E0E0E3" stroke-width="1.5"/>
<path d="M139.816 33.5199L138.879 34.7979L138.143 48.0059C143.365 54.5437 145.733 45.0591 144.893 36.7335C144.692 34.7421 144.394 32.9066 144.127 31.4959C143.595 28.6872 141.507 31.2148 139.816 33.5199Z" fill="white" stroke="#E0E0E3" stroke-width="1.5"/>
<path d="M130.133 40.9632V37.2282C130.133 33.4587 129.507 28.7241 125.806 28.0103C118.859 26.6708 117.671 38.5074 118.111 45.5686L118.349 49.3817C118.483 50.7218 120.343 52.9798 121.459 54.1301C121.647 54.3233 121.906 54.4264 122.175 54.4264C122.323 54.4264 122.471 54.3948 122.604 54.3313C125.299 53.0515 127.17 51.043 128.385 49.152C129.926 46.7534 130.133 43.8145 130.133 40.9632Z" fill="white" stroke="#E0E0E3" stroke-width="1.5"/>
<path d="M100.361 37.6411C100.392 35.0967 101.367 32.9654 102.721 31.3059C105.938 27.3624 112.166 27.2735 115.328 31.2609C117.034 33.4119 118.35 36.3787 118.35 40.0259V53.7842C118.38 54.6403 117.564 56.174 114.851 56.4442C112.995 56.6292 109.557 56.6898 106.608 56.7097C104.135 56.7263 100.545 56.6244 100.545 54.1511L100.637 45.9878L100.361 37.6411Z" fill="white" stroke="#E0E0E3" stroke-width="1.5"/>
<path d="M135.105 28.3772C134.221 28.2304 131.422 30.8843 130.133 32.2295L128.844 48.3727C132.232 52.4819 134 53.02 134.46 52.7754C136.209 51.9804 139.616 48.2076 139.248 39.4756C138.787 28.5606 136.209 28.5606 135.105 28.3772Z" fill="white" stroke="#E0E0E3" stroke-width="1.5"/>
<path d="M81.2 30.2194C76.2316 35.3168 76.7838 45.6557 77.7491 55.0684C79.1302 58.3704 94.0446 57.4532 97.0828 57.178C99.9382 56.9194 100.581 53.6185 100.581 50.7514V41.7686C100.715 38.3576 100.507 32.5082 95.7084 29.3056C91.3501 26.3968 84.8574 26.467 81.2 30.2194Z" fill="white" stroke="#E0E0E3" stroke-width="1.5"/>
</svg>

<svg width="152" height="59" fill="none" xmlns="http://www.w3.org/2000/svg"><path d="M5.974 5.08C-1.482 9.749-.755 19.752 1.717 27.777c1.614 5.24 6.216 8.781 11.558 10.017 12.34 2.855 36.773 7.65 62.024 7.735 35.594.122 72.848-9.322 74.019-9.906 2.357-1.174 2.762-12.718 2.67-18.344C151.841 3.502 140.705.908 128.861 1.31c-5.947.202-11.739 1.804-17.584 2.925-.286.055-.568.107-.845.157-7.307 1.307-14.49-1.143-21.766-2.613C72.687-1.45 62.567 4.396 60.66 5.08c-1.841.661-5.738.276-7.457 0L38.841 2.054C32.181.37 16.285-1.377 5.974 5.08z" fill="#F5F5F5"/><path d="M151.488 17.284v.003c.046 2.8-.032 7.072-.414 10.782-.191 1.858-.456 3.555-.813 4.851-.179.649-.376 1.178-.588 1.572-.216.402-.418.603-.576.683l-.035.014-.115.04a12.32 12.32 0 01-.402.123c-.34.1-.813.23-1.41.386-1.195.312-2.88.727-4.983 1.21a332.67 332.67 0 01-17.021 3.4c-13.893 2.416-32.074 4.742-49.83 4.681-25.198-.086-49.59-4.87-61.913-7.722-5.21-1.205-9.643-4.643-11.193-9.678C.969 23.651.189 19.218.62 15.223c.43-3.98 2.056-7.488 5.62-9.72 5.047-3.16 11.497-4.33 17.55-4.489 6.047-.158 11.64.693 14.929 1.524l.01.002.009.002L53.1 5.57l.012.002.012.002c.877.14 2.302.308 3.745.357 1.422.049 2.941-.014 3.96-.38a17.54 17.54 0 001.041-.443c1.463-.653 4.005-1.788 7.633-2.659C74.208 1.32 80.658.671 88.567 2.27c1.514.306 3.024.655 4.54 1.005l.89.205c1.811.416 3.63.822 5.454 1.14 3.647.638 7.334.933 11.069.265.279-.05.563-.103.852-.158 1.516-.291 3.02-.612 4.519-.931 4.328-.924 8.608-1.836 12.987-1.985 5.9-.2 11.533.352 15.695 2.607 2.07 1.122 3.774 2.663 4.971 4.747 1.199 2.086 1.908 4.744 1.944 8.12z" stroke="#C7C7CC" stroke-opacity=".6"/><path d="M6.767 30.67c1.547-1.027 2.369 4.097 2.522 6.788l.7 9.906c-.276.917-1.141 2.678-2.393 2.385-1.566-.367-2.578-4.862-2.762-8.072-.184-3.21 0-9.723 1.933-11.007z" fill="#fff" stroke="#E0E0E3" stroke-width="1.5"/><path d="M14.392 33.52l.937 1.278.737 13.208c-5.223 6.538-7.59-2.947-6.75-11.273.2-1.99.499-3.826.766-5.237.532-2.809 2.62-.281 4.31 2.024zm9.683 7.443v-3.735c0-3.77.626-8.504 4.327-9.218 6.947-1.34 8.136 10.497 7.695 17.559l-.237 3.813c-.135 1.34-1.994 3.598-3.11 4.748a.993.993 0 01-.717.296.995.995 0 01-.429-.095c-2.694-1.28-4.565-3.288-5.78-5.179-1.542-2.399-1.749-5.337-1.749-8.189z" fill="#fff" stroke="#E0E0E3" stroke-width="1.5"/><path d="M53.848 37.641c-.031-2.544-1.007-4.676-2.36-6.335-3.217-3.944-9.445-4.033-12.608-.045-1.705 2.15-3.021 5.118-3.021 8.765v13.758c-.03.856.786 2.39 3.498 2.66 1.857.185 5.294.246 8.243.266 2.474.016 6.063-.086 6.063-2.559l-.091-8.163.276-8.347zm-34.744-9.264c.884-.147 3.683 2.507 4.971 3.853l1.29 16.143c-3.389 4.109-5.156 4.647-5.617 4.402-1.749-.795-5.155-4.567-4.787-13.3.46-10.914 3.038-10.914 4.143-11.098z" fill="#fff" stroke="#E0E0E3" stroke-width="1.5"/><path d="M73.01 30.22c4.97 5.097 4.417 15.436 3.452 24.848-1.381 3.302-16.296 2.385-19.334 2.11-2.855-.259-3.498-3.56-3.498-6.427V41.77c-.135-3.411.074-9.26 4.872-12.463 4.359-2.91 10.851-2.839 14.509.913zm74.431.45c-1.546-1.027-2.368 4.097-2.522 6.788l-.7 9.906c.276.917 1.142 2.678 2.394 2.385 1.565-.367 2.578-4.862 2.762-8.072.184-3.21 0-9.723-1.934-11.007z" fill="#fff" stroke="#E0E0E3" stroke-width="1.5"/><path d="M139.816 33.52l-.937 1.278-.736 13.208c5.222 6.538 7.59-2.947 6.75-11.273a62.168 62.168 0 00-.766-5.237c-.532-2.809-2.62-.281-4.311 2.024zm-9.683 7.443v-3.735c0-3.77-.626-8.504-4.327-9.218-6.947-1.34-8.135 10.497-7.695 17.559l.238 3.813c.134 1.34 1.994 3.598 3.11 4.748a.995.995 0 00.716.296.999.999 0 00.429-.095c2.695-1.28 4.566-3.288 5.781-5.179 1.541-2.399 1.748-5.337 1.748-8.189z" fill="#fff" stroke="#E0E0E3" stroke-width="1.5"/><path d="M100.361 37.641c.031-2.544 1.006-4.676 2.36-6.335 3.217-3.944 9.445-4.033 12.607-.045 1.706 2.15 3.022 5.118 3.022 8.765v13.758c.03.856-.786 2.39-3.499 2.66-1.856.185-5.294.246-8.243.266-2.473.016-6.063-.086-6.063-2.559l.092-8.163-.276-8.347zm34.744-9.264c-.884-.147-3.683 2.507-4.972 3.853l-1.289 16.143c3.388 4.109 5.156 4.647 5.616 4.402 1.749-.795 5.156-4.567 4.788-13.3-.461-10.914-3.039-10.914-4.143-11.098z" fill="#fff" stroke="#E0E0E3" stroke-width="1.5"/><path d="M81.2 30.22c-4.968 5.097-4.416 15.436-3.45 24.848 1.38 3.302 16.295 2.385 19.333 2.11 2.855-.259 3.498-3.56 3.498-6.427V41.77c.134-3.411-.074-9.26-4.873-12.463-4.358-2.91-10.85-2.839-14.508.913z" fill="#fff" stroke="#E0E0E3" stroke-width="1.5"/></svg>
